!!!ONB: MCCC : ILB0177_03 : Extracted Monophonic Melody
!!!COM: Beethoven, Ludwig van
!!!OPR: Piano Sonata No.16
!!!OMV: 3
!!!SCT: Op.31 No.1
!!!ODT: 1801///
**kern
*thru
*staff1
*Ipiano
*clefG2
*k[f#]
*G:
*M4/4
*MM160
8dd
8cc#
8dd
8ee
=1
4dd
2.d
=2
2g
8b
8a
8g
8a
=3
4b
2g
4a
=4
2dd
8dd
8cc#
8dd
8ee
=5
4dd
2.d
=6
2g
8b
8a
8g
8a
=7
4b
4g
4cc
4a
=8
4g
4r
4gg
4ff#
=9
4ff
4ee
4ee-
4ee-
=10
4ee-
4dd
8ee
8dd
8cc#
8dd
=11
4b
4dd
8ee
8dd
8cc#
8dd
=12
4b
4r
4gg
4ff#
=13
4ff
4ee
4ee-
4ee-
=14
4ee-
4dd
8ee
8dd
8cc#
8dd
=15
4b
4dd
8ee
8dd
8cc#
8dd
=16
4b
4r
2r
=17
12r
12bb
12ccc
12ddd
12ccc
12bb
*Xtuplet
12ccc
12aa
12bb
12ccc
12bb
12aa
=18
12bb
12gg
12aa
12bb
12aa
12gg
12ff#
12ee
12dd
12cc
12b
12a
=19
12g
12dd
12cc#
12dd
12b
12a
12g
12ee
12dd#
12ee
12cc#
12g
=20
12f#
12dd
12cc#
12dd
12a
12f#
4d
4r
=21
12r
12bb
12ccc
12ddd
12ccc
12bb
12ccc
12aa
12bb
12ccc
12bb
12aa
=22
12bb
12gg
12aa
12bb
12aa
12gg
12ff#
12ee
12dd
12cc
12b
12a
=23
12g
12f#
12g
12a
12b
12cc
12dd
12d
12c#
12d
12e
12f#
=24
4g
4r
8G
8g
8A
8a
=25
8g
8b
8g
8cc
8b-
8cc#
8b-
8cc#
=26
8b-
8cc#
8b
8dd
8ee
8dd
8cc#
8dd
=27
4b
4dd
8ee
8dd
8cc#
8dd
=28
4b
2.r
=29
8b
8gg
8cc
8gg
8cc#
8gg
8cc#
8gg
=30
8cc#
8gg
8dd
8gg
12f#
12a
12dd
12ff#
12dd
12a
=31
12g
12b
12dd
12gg
12dd
12b
12f#
12a
12dd
12ff#
12dd
12a
=32
12g
12b
12dd
12gg
12dd
12b
8ccc
8bb
8aa#
8bb
=33
4gg
4bb
8ccc
8bb
8aa#
8bb
=34
4gg
4bb
*tuplet
12cc#
12ee
12aa
12ccc#
12aa
12ee
*Xtuplet
=35
12dd
12ff#
12aa
12ddd
12aa
12ff#
12cc#
12ee
12aa
12ccc#
12aa
12ee
=36
12dd
12ff#
12aa
12ddd
12aa
12ff#
8bb
8aa
8gg#
8aa
=37
8gg
8ff#
8ee#
8ff#
8ff#
8ee
8dd#
8ee
=38
8ff#
8ee
8dd#
8ee
8bb
8aa
8gg#
8aa
=39
8gg
8ff#
8ee#
8ff#
8ff#
8ee
8dd#
8ee
=40
8ff#
8ee
8dd#
8ee
8ff#
8ee
8dd#
8ee
=41
8ff#
8ee
8dd#
8ee
8ff#
8ee
8dd#
8ee
=42
4a
4r
*tuplet
12r
12a
12b
12cc#
12b
12a
*Xtuplet
=43
12r
12dd
12ee
12ff#
12ee
12dd
12r
12a
12b
12cc#
12b
12a
=44
12r
12dd
12ee
12ff#
12ee
12dd
12r
12a
12b
12cc#
12b
12a
=45
12r
12dd
12ee
12ff#
12ee
12dd
12gg
12ee
12cc#
12g
12e
12c#
=46
12d
12f#
12d
12A
12F#
12d
12r
12a
12b
12cc#
12b
12a
=47
12r
12dd
12ee
12ff#
12ee
12dd
12gg
12ee
12cc#
12g
12e
12c#
=48
12d
12f#
12d
12A
12F#
12d
12r
12a
12b
12cc#
12b
12a
=49
12r
12dd
12ee
12ff#
12ee
12dd
12gg
12ee
12cc#
12g
12e
12c#
=50
12d
12f#
12a
12dd
12ff#
12aa
12gg
12ee
12cc#
12g
12e
12c#
=51
12d
12f#
12a
12dd
12ff#
12aa
12gg
12ee
12cc#
12g
12e
12c#
=52
12d
12f#
12d
12A
12a
12f#
12d
12dd
12a
12f#
12d
12dd
=53
12f#
12ff#
12dd
12a
12f#
12ff#
12a
12aa
12ff#
12dd
12a
12aa
=54
12dd
12ddd
12dd
12ddd
12dd
12ddd
12dd
12ddd
12dd
12ddd
12dd
12ddd
=55
12dd
12ddd
12dd
12ddd
12dd
12ddd
12dd
12ddd
12dd
12ddd
12dd
12ddd
=56
12dd
12ddd
12dd
12ddd
12dd
12ddd
12bb
12ccc#
12ddd
12gg
12aa
12bb
=57
12ee
12ff#
12gg
12b
12ff#
12ee
12a
12ee
12dd
12g
12dd
12cc#
=58
12dd
12ddd
12dd
12ddd
12dd
12ddd
12dd
12ddd
12dd
12ddd
12dd
12ddd
=59
12dd
12ddd
12dd
12ddd
12dd
12ddd
12dd
12ddd
12dd
12ddd
12dd
12ddd
=60
12dd
12ddd
12dd
12ddd
12dd
12ddd
12dd
12ddd
12dd
12ddd
12dd
12ddd
=61
12ccc#
12eee
12ddd
12gg#
12bb
12aa
12ee#
12gg
12ff#
12cc#
12ee
12dd
=62
12dd
12ddd
12dd
12ddd
12dd
12ddd
12dd
12ddd
12dd
12ddd
12dd
12ddd
=63
12ccc#
12eee
12ddd
12gg#
12bb
12aa
12ee#
12gg
12ff#
12cc#
12ee
12dd
=64
12dd
12ddd
12dd
12ddd
12dd
12ddd
12dd
12ddd
12dd
12ddd
12dd
12ddd
=65
12dd
12ddd
12dd
12ddd
12dd
12ddd
12dd
12ddd
12dd
12ddd
12dd
12ddd
=66
4dd
4r
8dd
8cc#
8dd
8ee
=67
4dd
4d
4e
4f#
=68
2g
8b
8a
8g
8a
=69
4b
4g
4cc#
4a
=70
4dd
4r
8dd
8cc#
8dd
8ee
=71
4dd
4d
4e
4f#
=72
2g
8b
8a
8g
8a
=73
4b
4g
4cc
4a
=74
4g
4r
[4gg
4gg]
=75
4ff
4ee
4ee-
4ee-
=76
4ee-
4dd
8ee
8dd
8cc#
8dd
=77
4b
4dd
8ee
8dd
8cc#
8dd
=78
4b
4r
[4gg
4gg]
=79
4ff
4ee
4ee-
4ee-
=80
4ee-
4dd
8ee
8dd
8cc#
8dd
=81
4b
4dd
8ee
8dd
8cc#
8dd
=82
4b
4r
2r
=83
12r
12bb-
12ccc
12ddd
12ccc
12bb-
12ccc
12aa
12bb-
12ccc
12bb-
12aa
=84
12bb-
12gg
12aa
12bb-
12aa
12gg
12ff#
12ee-
12dd
12cc
12b-
12a
=85
12g
12dd
12cc#
12dd
12b-
12a
12g
12ee
12dd#
12ee
12cc#
12g
=86
12f#
12dd
12cc#
12dd
12a
12f#
4d
4r
=87
2r
8d
8c#
8d
8e-
=88
4d
4D
4E
4F#
=89
2G
8B-
8A
8G
8A
=90
4B
4G
8gg
8ff#
8gg
8aa-
=91
4gg
4g
4a
4b
=92
2cc
8ee-
8dd
8cc
8dd
=93
4ee-
4cc
4ff
4dd
=94
2gg
8bb-
8aa-
8gg
8aa-
=95
4bb-
4gg
4ccc
4aa-
=96
4ddd
4bb-
4eee-
4ff#
=97
2gg
2dd
=98
4ee-
2.r
=99
4eee-
4r
[2ee-
=100
4ee-]
4r
[2ee-
=101
1ee-_
=102
4ee-]
4r
8bb-
8aa
8bb-
8ccc
=103
4bb-
4b-
4cc
4dd
=104
4ee-
4r
8gg
8ff#
8gg
8aa-
=105
4gg
4g
4a
4b
=106
4cc
4r
[2ccc
=107
4ccc]
4r
[2cc
=108
4cc]
4r
[2cc
=109
1cc_
=110
4cc]
4r
8gg
8ff#
8gg
8aa-
=111
4gg
4g
4a
4b
=112
4cc
4r
8cc
8b
8cc
8dd-
=113
4cc
4ccc
4ddd
4eee
=114
4fff
4r
[2fff
=115
4fff]
4r
[2ff
=116
4ff]
4r
[2ff
=117
4ff]
2.r
=118
4ddd-
4r
[2ee-
=119
4ee-]
4r
8ccc
8bb
8ccc
8ddd
=120
4ccc
4r
[2dd
=121
4dd]
4r
[2gg
=122
4gg]
4r
[2gg
=123
4gg]
4r
[2gg
=124
2.gg]
4gg
=125
4ff#
4r
4ddd
4ddd[
=126
2.ddd]
4ccc#
=127
4ddd
4r
4dd
4dd[
=128
2.dd]
4gg
=129
4ff#
4r
2r
=130
1r
=131
1r
=132
2r
8ddd
8ccc#
8ddd
8eee
=133
4ddd
4dd
4ee
4ff#
=134
2gg
8bb
8aa
8gg
8aa
=135
4bb
4gg
4ccc#
4aa
=136
2ddd
8ddd
8ccc#
8ddd
8eee
=137
4ddd
4dd
4ee
4ff#
=138
2gg
8bb
8aa
8gg
8aa
=139
4bb
4gg
4ccc#
4aa
=140
4gg
4r
12g
12b
12gg
12g
12cc
12ff#
=141
12g
12dd
12ff
12g
12cc
12ee
12g
12cc
12ee-
12a
12cc
12ee-
=142
12cc
12ee-
12cc
12b
12dd
12b
8ee
8dd
8cc#
8dd
=143
4b
4dd
8ee
8dd
8cc#
8dd
=144
4b
4r
12b
12aa
12gg
12cc
12gg
12ff#
=145
12dd
12gg
12ff
12g
12ff
12ee
12cc
12ff
12ee-
12cc
12ff
12ee-
=146
12cc
12ff
12ee-
12b
12ee-
12dd
8ee
8dd
8cc#
8dd
=147
4b
4dd
8ee
8dd
8cc#
8dd
=148
4b
4r
2r
=149
12r
12bb
12ccc
12ddd
12ccc
12bb
12ccc
12aa
12bb
12ccc
12bb
12aa
=150
12bb
12gg
12aa
12bb
12aa
12gg
12ff#
12ee
12dd
12cc
12b
12a
=151
12g
12dd
12cc#
12dd
12b
12a
12g
12ee
12dd#
12ee
12cc#
12g
=152
12f#
12dd
12cc#
12dd
12a
12f#
4d
4r
=153
12r
12bb
12ccc
12ddd
12ccc
12bb
12ccc
12aa
12bb
12ccc
12bb
12aa
=154
12bb
12gg
12aa
12bb
12aa
12gg
12ff#
12ee
12dd
12cc
12b
12a
=155
12g
12f#
12g
12a
12b
12cc
12dd
12d
12c#
12d
12e
12f#
=156
12g
12gg
12g
12gg
12g
12gg
12g
12gg
12g
12gg
12g
12gg
=157
12g
12gg
12g
12gg
12g
12gg
12g
12gg
12g
12gg
12g
12gg
=158
12g
12gg
12g
12gg
12g
12gg
8ee
8dd
8cc#
8dd
=159
4b
4dd
8ee
8dd
8cc#
8dd
=160
12b
12gg
12g
12gg
12g
12gg
12g
12gg
12g
12gg
12g
12gg
=161
12g
12gg
12g
12gg
12g
12gg
12g
12gg
12g
12gg
12g
12gg
=162
12g
12gg
12g
12gg
12g
12gg
12f#
12a
12dd
12ff#
12dd
12a
=163
12g
12b
12dd
12gg
12dd
12b
12f#
12a
12dd
12ff#
12dd
12a
=164
12g
12b
12dd
12gg
12dd
12b
8ccc
8bb
8aa#
8bb
=165
4gg
4bb
8ccc
8bb
8aa#
8bb
=166
4gg
4bb
12b
12dd
12gg
12bb
12gg
12dd
=167
12cc
12ee
12gg
12ccc
12gg
12ee
12b
12dd
12gg
12bb
12gg
12dd
=168
12cc
12ee
12gg
12ccc
12gg
12ee
8fff
8eee
8ddd#
8eee
=169
4ccc
4eee
8fff
8eee
8ddd#
8eee
=170
4ccc
4eee
8fff
8eee
8ddd#
8eee
=171
8ddd
8ccc
8bb
8ccc
8bb
8aa
8gg#
8aa
=172
8gg
8ff#
8ee#
8ff#
8eee
8ddd
8ccc#
8ddd
=173
8ccc
8bb
8aa#
8bb
8bb
8aa
8gg#
8aa
=174
8bb
8aa
8gg#
8aa
8eee
8ddd
8ccc#
8ddd
=175
8ccc
8bb
8aa#
8bb
8bb
8aa
8gg#
8aa
=176
8bb
8aa
8gg#
8aa
8bb
8aa
8gg#
8aa
=177
8bb
8aa
8gg#
8aa
8bb
8aa
8gg#
8aa
=178
4dd
4r
12r
12dd
12ee
12ff#
12ee
12dd
=179
12r
12gg
12aa
12bb
12aa
12gg
12r
12dd
12ee
12ff#
12ee
12dd
=180
12r
12gg
12aa
12bb
12aa
12gg
12r
12dd
12ee
12ff#
12ee
12dd
=181
12r
12gg
12aa
12bb
12aa
12gg
12ccc
12aa
12ff#
12cc
12a
12f#
=182
12g
12b
12g
12d
12B
12g
12r
12d
12e
12f#
12e
12d
=183
12r
12g
12a
12b
12a
12g
12cc
12a
12f#
12c
12A
12F#
=184
12G
12B
12G
12D
12BB
12G
12r
12D
12E
12F#
12E
12D
=185
12r
12G
12A
12B
12A
12G
12c
12A
12F#
12C
12AA
12FF#
=186
12GG
12BB
12D
12G
12B
12d
12c
12A
12F#
12C
12AA
12FF#
=187
12GG
12BB
12D
12G
12B
12d
12c
12A
12F#
12C
12AA
12FF#
=188
12GG
12B
12G
12D
12BB
12B
12D
12d
12B
12G
12D
12d
=189
12G
12g
12d
12B
12G
12g
12B
12b
12g
12d
12dd
12b
=190
12g
12gg
12g
12gg
12g
12gg
12g
12gg
12g
12gg
12g
12gg
=191
12g
12gg
12g
12gg
12g
12gg
12g
12gg
12g
12gg
12g
12gg
=192
12g
12gg
12g
12gg
12g
12gg
12ee
12ff#
12gg
12cc
12dd
12ee
=193
12a
12b
12cc
12e
12b
12a
12d
12a
12g
12c
12g
12f#
=194
12g
12gg
12g
12gg
12g
12gg
12g
12gg
12g
12gg
12g
12gg
=195
12g
12gg
12g
12gg
12g
12gg
12g
12gg
12g
12gg
12g
12gg
=196
12g
12gg
12g
12gg
12g
12gg
12g
12gg
12g
12gg
12g
12gg
=197
12g
12gg
12g
12gg
12g
12gg
12g
12gg
12g
12gg
12g
12gg
=198
12g
12gg
12g
12gg
12g
12gg
12g
12gg
12g
12gg
12g
12gg
=199
12g
12gg
12g
12gg
12g
12gg
12g
12gg
12g
12gg
12g
12gg
=200
12g
12gg
12g
12gg
12g
12gg
12g
12gg
12g
12gg
12g
12gg
=201
12g
12gg
12g
12gg
12cc#
12b-
12gg
12dd
12b
12gg
12ee
12b-
=202
12gg
12dd
12b
12gg
12g
12gg
12g
12gg
12g
12gg
12g
12gg
=203
12g
12gg
12g
12gg
12cc#
12b-
12gg
12dd
12b
12gg
12ee
12b-
=204
12gg
12dd
12b
12gg
12cc#
12b-
12gg
12dd
12b
12gg
12ee
12b-
=205
12gg
12dd
12b
12gg
12ee
12b-
12gg
12dd
12b
12gg
12ee
12b-
=206
4gg
4r
4g
4f#
=207
4f
4e
4e-
4e-
=208
4e-
4d
4c#
4c
=209
4B
4r
2r
=210
4r
8r
8g
4cc
4cc
=211
4cc
8b
8e
4a
4a
=212
4a
8g
8r
4ddd
4ccc#
=213
4ccc
4bb
4bb-
4bb-
=214
4bb-
8aa
8dd
4gg
4gg
=215
4gg
8ff#
8bb
4eee
4eee
=216
4eee
8ddd
8gg
4ccc
4ccc
=217
4..ccc
16d
4cc
4cc
=218
1cc
=219
4..ccc
16d
4cc
4cc
=220
1cc
=221
4..ccc
16d
4cc
4cc
=222
4..cc
16d
4cc#
4cc#
=223
1cc#[
=224
2cc#]
8dd
8cc#
8dd
8ee
=225
4dd
4d
4e
4f#
=226
2g
2r
=227
2.r
8g#
8a
=228
4b
4g
4cc#
4a
=229
2dd:
2r
=230
2r
8dd
8cc#
8dd
8ee
=231
4dd
4d
4e
4f#
=232
2g
2r
=233
2.r
8g#
8a
=234
4b
4g
2cc
=235
2r
2a
=236
1dd:
=237
2.r
8g#
8a
=238
4b
4g
2cc
=239
2r
2a
=240
1r
=241
1r
=242
1r
=243
2r
8eee
8ddd
8ccc#
8ddd
=244
8ee
8dd
8cc#
8dd
8eee
8ddd
8ccc#
8ddd
=245
8ee
8dd
8cc#
8dd
8eee
8ddd
8ccc#
8ddd
=246
8ee
8dd
8cc#
8dd
8ee
8dd
8cc#
8dd
=247
8ee
8dd
8cc#
8dd
8ee
8dd
8cc#
8dd
=248
4b
4r
4r
4c#
=249
4d
4r
8ee
8dd
8cc#
8dd
=250
4b
4r
4r
4c#
=251
4d
4r
8eee
8ddd
8ccc#
8ddd
=252
4bb
4r
4r
4c#
=253
4r
4g
4r
4cc#
=254
4r
4gg
4r
4ccc#
=255
4r
4ccc#
4r
4ccc#
=256
8eee
8ddd
8ccc#
8ddd
8eee
8ddd
8ccc#
8ddd
=257
8eee
8ddd
8ccc#
8ddd
8eee
8ddd
8ccc#
8ddd
=258
8eee
8ddd
8ccc#
8ddd
8eee
8ddd
8ccc#
8ddd
=259
8eee
8ddd
8ccc#
8ddd
8eee
8ddd
8ccc#
8ddd
=260
4bb
4r
8ee
8dd
8cc#
8dd
=261
4b
4r
8e
8d
8c#
8d
=262
4B
4r
2r
=263
1r
=264
1r
=265
1r
=266
2r
4ccc
4ccc
=267
2r
4ff#
4ff#
=268
2r
4gg
4gg
=269
1r
=270
2r
4dd
4dd
=271
1r
=272
2r
4b
4r
=273
2r
4d
4r
=274
2r
4B
4r
=275
1r
==
*-
